packages/icons/src/keyboard.svg

<svg xmlns="http://www.w3.org/2000/svg" width="15" height="15" fill="none"><rect width="14" height="8" x=".5" y="3.5" stroke="currentColor" rx="1"/><path fill="currentColor" d="M2 5h1v1H2zm2 0h1v1H4zm2 0h1v1H6zm2 0h1v1H8zm2 0h1v1h-1zm2 0h1v1h-1zm-1 2h1v1h-1zm1 2h1v1h-1zM9 7h1v1H9zM7 7h1v1H7zM5 7h1v1H5zM3 7h1v1H3zM2 9h1v1H2zm2 0h7v1H4z"/></svg>

<svg width="15" height="15" viewBox="0 0 15 15" fill="none" xmlns="http://www.w3.org/2000/svg">
  <rect x=".5" y="3.5" width="14" height="8" rx="1" stroke="currentColor" />
  <path
    fill="currentColor"
    d="M2 5H3V6H2zM4 5H5V6H4zM6 5H7V6H6zM8 5H9V6H8zM10 5H11V6H10zM12 5H13V6H12zM11 7H12V8H11zM12 9H13V10H12zM9 7H10V8H9zM7 7H8V8H7zM5 7H6V8H5zM3 7H4V8H3zM2 9H3V10H2zM4 9H11V10H4z"
  />
</svg>
